X:594
T:Oi Tune, The
T:Swedish Polka
T:Norwegian Polka
S:Jack Campin
Z:Nigel Gatherer
L:1/8
M:2/4
K:G
dd/d/ dd/d/ | dd/d/ ed | BB/B/ BB/B/ | BB/B/ cB |
AA/A/ GG    | FF    EE | DC    BA    | GF    ED |
dd/d/ dd/d/ | dd/d/ ed | BB/B/ BB/B/ | BB/B/ cB |
AA/A/ GG    | FF    EE | DC    BA    | G4      ||
D3     G    | B3     z | BB/B/ cB    | A2    z2 |
AA/A/ GG    | FF    EE | DC    BA    | GF    ED |
D3     G    | B3     z | BB/B/ cB    | A2    z2 |
AA/A/ GG    | FF    EE | DC    BA    | G4      |]
